X:1
T:Stand up, my soul, shake off thy fears
T:Stand up, my soul, shake off thy fears - St. Mary’s (William Perry)
C:William Perry
Z:p27, Original Sacred
Z:Melodies,
Z:London: [c1820-1829]
%%score [ 1 2 3 4 ]
L:1/8
M:4/4
K:D
V:1 treble nm="[S]"
V:2 treble nm="[A]"
V:3 treble-8 transpose=-12 nm="[T]"
V:4 bass nm="[B]"
V:1
"^Maestoso" A2 | f4 e4 | d6 d2 | (A>B AG F2) E2 | D6 A2 | d4 e4 | f6 d2 | (e>f ed c2) B2 | A6 || %9
w: Then|let my|soul march|bold- * * * * ly|on, Press|for- ward|to the|heav'n- * * * * ly|gate;|
w: Stand|up, my|soul, shake|off _ _ _ _ thy|fears, And|gird the|gos- pel|ar- * * * * mour|on.|
w: Hell|and thy|sins re-|sist _ _ _ _ thy|course, But|hell and|sin are|van- * * * * quished|foes:|
 A2 | F4 A4 | (d3 e f2) A2 | F4 D4 | (G3 A B2) A2 | (B3 c d2) A2 | (d3 e f2) e2 | (d3 c) (B3 A) | %17
w: There|peace and|joy _ _ e-|ter- nal|reign, _ _ And|glitt- * * ’ring|robes _ _ for|con- * qu’rors _|
w: March|to the|gates _ _ of|end- less|joy, _ _ Where|thy _ _ great|Cap- * * tain|Sa- * viour’s _|
w: Thy|Je- sus|nailed _ _ them|to the|cross. _ _ And|sung _ _ the|tri- * * umph|when _ he _|
 A6 A2 | d4 A4 | d6 A2 | d4 f4 | d6 f2 | (edcB AG)(FE) | (D2 F2 A2) g2 | (f2 e2) (d2 c2) | d6 |] %26
w: wait, There|peace and|joy e-|ter- nal|reign, And|glitt- * * * * * ’ring _|robes _ _ for|con- * qu’rors _|wait.|
w: gone; March|to the|gates of|end- less|joy, Where|thy _ _ _ _ _ great _|Cap- * * tain|Sa- * viour’s _|gone.|
w: rose, Thy|Je- sus|nailed them|to the|cross, And|sung _ _ _ _ _ the _|tri- * * umph|when _ he _|rose.|
V:2
 F2 | A4 G4 | F6 A2 | (F>G FE D2) C2 | D6 F2 | A4 A4 | A6 A2 | A6 ^G2 | A6 || A2 | D4 F4 | A6 F2 | %12
w: Then|let my|soul march|bold- * * * * ly|on, Press|for- ward|to the|heav'n- ly|gate;|There|peace and|joy e-|
w: Stand|up, my|soul, shake|off _ _ _ _ thy|fears, And|gird the|gos- pel|ar- mour|on.|March|to the|gates of|
w: Hell|and thy|sins re-|sist _ _ _ _ thy|course, But|hell and|sin are|van- quished|foes:|Thy|Je- sus|nailed them|
 D4 F4 | G6 A2 | (G4 A2) A2 | F6 A2 | F4 ^G4 | A6 F2 | F4 D4 | F6 A2 | A4 A4 | A6 A2 | A6 (AG) | %23
w: ter- nal|reign, And|glitt- * ’ring|robes for|con- qu’rors|wait, There|peace and|joy e-|ter- nal|reign, And|glitt- ’ring _|
w: end- less|joy, Where|thy _ great|Cap- tain|Sa- viour’s|gone; March|to the|gates of|end- less|joy, Where|thy great _|
w: to the|cross. And|sung _ the|tri- umph|when he|rose, Thy|Je- sus|nailed them|to the|cross, And|sung the _|
 F6 B2 | (A2 G2) (F2 E2) | F6 |] %26
w: robes for|con- * qu’rors _|wait.|
w: Cap- tain|Sa- * viour’s _|gone.|
w: tri- umph|when _ he _|rose.|
V:3
 d2 | d4 c4 | d6 d2 | d4 (A3 G) | F6 d2 | d4 c4 | d6 F2 | (A3 B c2) d2 | c6 || d2 | A4 d4 | %11
w: Then|let my|soul march|bold- ly _|on, Press|for- ward|to the|heav'n- * * ly|gate;|There|peace and|
w: Stand|up, my|soul, shake|off thy _|fears, And|gird the|gos- pel|ar- * * mour|on.|March|to the|
w: Hell|and thy|sins re-|sist thy _|course, But|hell and|sin are|van- * * quished|foes:|Thy|Je- sus|
 (f3 e d2) d2 | d4 d4 | d6 d2 | (d3 e f2) e2 | d6 A2 | A4 d4 | c6 d2 | A4 F4 | A6 f2 | f4 d4 | %21
w: joy _ _ e-|ter- nal|reign, And|glitt- * * ’ring|robes for|con- qu’rors|wait, There|peace and|joy e-|ter- nal|
w: gates _ _ of|end- less|joy, Where|thy _ _ great|Cap- tain|Sa- viour’s|gone; March|to the|gates of|end- less|
w: nailed _ _ them|to the|cross. And|sung _ _ the|tri- umph|when he|rose, Thy|Je- sus|nailed them|to the|
 d6 d2 | (c2 d2 e2) c2 | d6 d2 | (d2 A2) A4 | A6 |] %26
w: reign, And|glitt- * * ’ring|robes for|con- * qu’rors|wait.|
w: joy, Where|thy _ _ great|Cap- tain|Sa- * viour’s|gone.|
w: cross, And|sung _ _ the|tri- umph|when _ he|rose.|
V:4
 D,2 | D,4 A,4 | D6 F,2 | A,4 A,,4 | D,6 D,2 | F,4 A,4 | D6 D,2 | (C,3 D,) E,4 | A,,6 || D,2 | %10
w: Then|let my|soul march|bold- ly|on, Press|for- ward|to the|heav'n- * ly|gate;|There|
w: Stand|up, my|soul, shake|off thy|fears, And|gird the|gos- pel|ar- * mour|on.|March|
w: Hell|and thy|sins re-|sist thy|course, But|hell and|sin are|van- * quished|foes:|Thy|
 D,4 D,4 | D,6 D,2 | D4 =C4 | (B,3 A, G,2) F,2 | (G,3 E, D,2) C,2 | B,,6 C,2 | D,4 E,4 | A,6 D,2 | %18
w: peace and|joy e-|ter- nal|reign, _ _ And|glitt- * * ’ring|robes for|con- qu’rors|wait, There|
w: to the|gates of|end- less|joy, _ _ Where|thy _ _ great|Cap- tain|Sa- viour’s|gone; March|
w: Je- sus|nailed them|to the|cross. _ _ And|sung _ _ the|tri- umph|when he|rose, Thy|
 D,4 D,4 | D,6 D2 | %20
w: peace and|joy e-|
w: to the|gates of|
w: Je- sus|nailed them|
"^Notes: The alto part is printed in the source in the treble clef an octave above sounding pitch.Keyboard accompaniment given in full in the original has been omitted, and a selection of verses after the first hasbeen underlaid editorially." (D2 CB, A,G,)(F,E,) | %21
w: ter- * * * * nal _|
w: end- * * * * less _|
w: to _ _ _ _ the _|
 (F,2 A,2 F,2) D,2 | (A,2 B,2 C2) A,2 | B,4 (F,2 G,2) | A,4 A,,4 | D,6 |] %26
w: reign, _ _ And|glitt- * * ’ring|robes for _|con- qu’rors|wait.|
w: joy, _ _ Where|thy _ _ great|Cap- tain _|Sa- viour’s|gone.|
w: cross, _ _ And|sung _ _ the|tri- umph _|when he|rose.|

